X: 190
T: Moonshiner
M:3/4
R:waltz
L:1/8
Z:added by Alf warnock alf0@rogers.com -
K:D
%%text Verse
A2|"D"d2 d3e|f2 d3c|"G"B2 B2 B2|"Em"e4 d2|
"A7"c2 c2 c2|e2 c3B|A2 B2 G2|"D"F4 A2|
d2 d3d|f2 d2 c2|"G"B2 B3B|"Em"e4 ef|
"A7"g2 e2 ef|g2 e2 cB|A2 B2 c2|"D"d4|
%%text Chorus
AA|"D"d2 d3e|f2 d3c|"G"B2 B2 B2|"Em"e4 d2|
"A7"c2 c2 c2|e2 c3B|A2 B2 G2|"D"F4 A2|
d2 d3d|f2 d2 c2|"G"B2 B3B|"Em"e4 ef|
"A7"g2 e2 ef|g2 e2 cB|A2 B2 c2|"D"d6-|d4|]

